src/icons/trigger-github.svg

<?xml version="1.0" encoding="UTF-8"?>
<svg width="32px" height="32px" viewBox="0 0 32 32" version="1.1" xmlns="http://www.w3.org/2000/svg" xmlns:xlink="http://www.w3.org/1999/xlink">
    <!-- Generator: Sketch 59 (86127) - https://sketch.com -->
    <title>HDL/Icon/Standard/Trigger/triggergithub</title>
    <desc>Created with Sketch.</desc>
    <g id="Colors" stroke="none" stroke-width="1" fill="none" fill-rule="evenodd">
        <g id="Trigger-Icons" transform="translate(-100.000000, -243.000000)">
            <g id="HDL/Icon/Standard/Trigger/triggergithub" transform="translate(100.000000, 243.000000)">
                <g id="TriggerGithub">
                    <g id="Group-Copy" fill-rule="nonzero">
                        <circle id="Oval" fill="#FCDEDE" cx="16" cy="16" r="16"></circle>
                        <rect id="Rectangle" fill="#FFFFFF" transform="translate(15.770508, 15.961914) rotate(45.000000) translate(-15.770508, -15.961914) " x="9.77050782" y="9.96191391" width="12" height="12"></rect>
                    </g>
                    <g id="git" transform="translate(7.000000, 7.000000)" fill="#F24F29" fill-rule="nonzero">
                        <path d="M0,9.25714286 C0,9.12857143 0,8.87142857 0,8.74285714 C0,8.35714286 0.257142857,8.1 0.514285714,7.84285714 C2.05714286,6.3 3.72857143,4.62857143 5.27142857,3.08571429 C5.4,2.95714286 5.4,2.95714286 5.52857143,2.82857143 C5.65714286,2.7 5.78571429,2.7 5.91428571,2.82857143 C6.55714286,3.47142857 7.2,3.98571429 7.71428571,4.62857143 C7.84285714,4.75714286 7.84285714,4.88571429 7.84285714,5.01428571 C7.71428571,5.65714286 7.84285714,6.04285714 8.48571429,6.42857143 C8.61428571,6.55714286 8.74285714,6.68571429 8.74285714,6.94285714 C8.74285714,7.71428571 8.74285714,8.61428571 8.74285714,9.38571429 C8.74285714,10.0285714 8.74285714,10.5428571 8.74285714,11.1857143 C8.74285714,11.4428571 8.61428571,11.7 8.35714286,11.8285714 C7.71428571,12.2142857 7.71428571,13.1142857 8.1,13.6285714 C8.61428571,14.1428571 9.38571429,14.2714286 9.9,13.7571429 C10.4142857,13.2428571 10.4142857,12.3428571 9.77142857,11.9571429 C9.51428571,11.7 9.51428571,11.4428571 9.51428571,11.1857143 C9.51428571,9.9 9.51428571,8.48571429 9.51428571,7.2 C9.51428571,7.07142857 9.51428571,6.81428571 9.64285714,6.68571429 C9.9,6.55714286 9.9,6.81428571 10.0285714,6.94285714 C10.4142857,7.32857143 10.9285714,7.84285714 11.3142857,8.22857143 C11.5714286,8.48571429 11.7,8.61428571 11.5714286,8.87142857 C11.4428571,9.77142857 12.2142857,10.5428571 13.2428571,10.2857143 C13.7571429,10.1571429 14.1428571,9.51428571 14.0142857,9 C13.8857143,8.35714286 13.5,7.97142857 12.9857143,7.84285714 C12.9857143,7.84285714 12.8571429,7.84285714 12.8571429,7.84285714 C12.3428571,7.97142857 12.0857143,7.71428571 11.8285714,7.45714286 C11.4428571,6.94285714 10.9285714,6.55714286 10.4142857,6.04285714 C10.2857143,5.91428571 10.2857143,5.78571429 10.2857143,5.52857143 C10.4142857,4.62857143 9.77142857,3.98571429 8.87142857,4.11428571 C8.61428571,4.11428571 8.48571429,4.11428571 8.35714286,3.98571429 C7.84285714,3.34285714 7.2,2.82857143 6.68571429,2.31428571 C6.42857143,2.05714286 6.42857143,1.92857143 6.68571429,1.67142857 C7.2,1.15714286 7.58571429,0.771428571 8.1,0.257142857 C8.22857143,0 8.48571429,0 8.74285714,0 C8.87142857,0 9,0 9.25714286,0 C9.64285714,0 9.9,0.257142857 10.1571429,0.514285714 C12.6,2.95714286 15.0428571,5.4 17.4857143,7.84285714 C17.7428571,8.1 18,8.35714286 18,8.74285714 C18,8.87142857 18,9.12857143 18,9.25714286 C18,9.64285714 17.7428571,9.9 17.4857143,10.1571429 C15.0428571,12.6 12.6,15.0428571 10.1571429,17.4857143 C9.9,17.7428571 9.64285714,18 9.25714286,18 C9.12857143,18 8.87142857,18 8.74285714,18 C8.35714286,18 8.1,17.7428571 7.84285714,17.4857143 C5.4,15.0428571 2.95714286,12.6 0.385714286,10.0285714 C0.257142857,9.9 0,9.64285714 0,9.25714286 Z" id="Path"></path>
                    </g>
                </g>
            </g>
        </g>
    </g>
</svg>

<?xml version="1.0" encoding="utf-8"?>
<!-- Generator: Adobe Illustrator 20.1.0, SVG Export Plug-In . SVG Version: 6.00 Build 0)  -->
<svg version="1.1" id="Layer_1" xmlns="http://www.w3.org/2000/svg" xmlns:xlink="http://www.w3.org/1999/xlink" x="0px" y="0px"
	 viewBox="0 0 32 32" style="enable-background:new 0 0 32 32;" xml:space="preserve">
<style type="text/css">
	.st0{fill:#FCDEDE;}
	.st1{fill:#FFFFFF;}
	.st2{fill:#F24F29;}
</style>
<title>HDL/Icon/Standard/Trigger/triggergithub</title>
<desc>Created with Sketch.</desc>
<g id="Colors">
	<g id="Trigger-Icons" transform="translate(-100.000000, -243.000000)">
		<g id="HDL_x2F_Icon_x2F_Standard_x2F_Trigger_x2F_triggergithub" transform="translate(100.000000, 243.000000)">
			<g id="TriggerGithub">
				<g id="Group-Copy">
					<circle id="Oval" class="st0" cx="16" cy="16" r="16"/>
					
						<rect id="Rectangle" x="9.8" y="10" transform="matrix(0.7071 -0.7071 0.7071 0.7071 -6.6677 15.8266)" class="st1" width="12" height="12"/>
				</g>
				<g id="git" transform="translate(7.000000, 7.000000)">
					<path id="Path" class="st2" d="M0,9.3c0-0.1,0-0.4,0-0.5c0-0.4,0.3-0.6,0.5-0.9c1.5-1.5,3.2-3.2,4.8-4.8C5.4,3,5.4,3,5.5,2.8
						c0.1-0.1,0.3-0.1,0.4,0C6.6,3.5,7.2,4,7.7,4.6C7.8,4.8,7.8,4.9,7.8,5c-0.1,0.6,0,1,0.6,1.4c0.1,0.1,0.3,0.3,0.3,0.5
						c0,0.8,0,1.7,0,2.4c0,0.6,0,1.2,0,1.8c0,0.3-0.1,0.5-0.4,0.6c-0.6,0.4-0.6,1.3-0.3,1.8c0.5,0.5,1.3,0.6,1.8,0.1
						c0.5-0.5,0.5-1.4-0.1-1.8c-0.3-0.3-0.3-0.5-0.3-0.8c0-1.3,0-2.7,0-4c0-0.1,0-0.4,0.1-0.5C9.9,6.6,9.9,6.8,10,6.9
						c0.4,0.4,0.9,0.9,1.3,1.3c0.3,0.3,0.4,0.4,0.3,0.6c-0.1,0.9,0.6,1.7,1.7,1.4c0.5-0.1,0.9-0.8,0.8-1.3c-0.1-0.6-0.5-1-1-1.2
						h-0.1c-0.5,0.1-0.8-0.1-1-0.4c-0.4-0.5-0.9-0.9-1.4-1.4c-0.1-0.1-0.1-0.3-0.1-0.5C10.4,4.6,9.8,4,8.9,4.1c-0.3,0-0.4,0-0.5-0.1
						C7.8,3.3,7.2,2.8,6.7,2.3c-0.3-0.3-0.3-0.4,0-0.6c0.5-0.5,0.9-0.9,1.4-1.4C8.2,0,8.5,0,8.7,0C8.9,0,9,0,9.3,0
						c0.4,0,0.6,0.3,0.9,0.5C12.6,3,15,5.4,17.5,7.8C17.7,8.1,18,8.4,18,8.7c0,0.1,0,0.4,0,0.5c0,0.4-0.3,0.6-0.5,0.9
						c-2.4,2.4-4.9,4.9-7.3,7.3C9.9,17.7,9.6,18,9.3,18c-0.1,0-0.4,0-0.5,0c-0.4,0-0.6-0.3-0.9-0.5C5.4,15,3,12.6,0.4,10
						C0.3,9.9,0,9.6,0,9.3z"/>
				</g>
			</g>
		</g>
	</g>
</g>
</svg>
